X: 17050
T: Heather Breeze, The
R: reel
M: 4/4
K: Gmajor
DGBG dGBG|DFAF cFAF|DGBG dGBG|BdcA dBcA|
DGBG dGBG|DFAF cFAF|DGBG dGBG|BdcA BG G2||
g3f gbag|f3e fgaf|g3f gbag|fdcA dBcA|
g3f gbag|f3e fgaf|g3f gbag|fdcA BG G2||

